logos/ethereum-color.svg

<?xml version="1.0" encoding="UTF-8"?>
<svg width="256px" height="427px" viewBox="0 0 256 427" version="1.1" xmlns="http://www.w3.org/2000/svg" xmlns:xlink="http://www.w3.org/1999/xlink" preserveAspectRatio="xMidYMid">
    <title>Ethereum</title>
    <g>
				<path d="M256,241.649756 L128,426.8 L128,322.456624 L256,241.649756 Z M188.159483,306.730894 L147.070931,332.587626 L147.070931,366.060769 L188.159483,306.730894 Z" fill="#5A9DED"></path>
				<path d="M0,241.649756 L128,426.8 L128,322.456624 L0,241.649756 Z M67.8405172,306.730894 L108.929069,332.587626 L108.929069,366.060769 L67.8405172,306.730894 Z" fill="#53D3E0"></path>
				<polygon fill="#D995D1" points="144.237812 156.998107 229.012833 204.213138 232.017708 213.4 221.923682 222.212077 144.237812 178.854489"></polygon>
				<polygon fill="#A6E276" transform="translate(67.927760, 189.605092) scale(-1, 1) translate(-67.927760, -189.605092) " points="24.0378125 156.998107 108.812833 204.213138 111.817708 213.4 101.723682 222.212077 24.0378125 178.854489"></polygon>
				<path d="M128,0 L256,219.203353 L128,299.810807 L128,0 Z M146.90402,70.3166898 L146.90402,266.030518 L230.525714,213.4 L146.90402,70.3166898 Z" fill="#FF9C92"></path>
				<path d="M128,0 L0,219.203353 L128,299.810807 L128,0 Z M109.09598,70.3166898 L109.09598,266.030518 L25.4742863,213.4 L109.09598,70.3166898 Z" fill="#FFE94D"></path>
		</g>
</svg>

<svg width="256" height="427" xmlns="http://www.w3.org/2000/svg" preserveAspectRatio="xMidYMid">
	<path d="M256 241.65 128 426.8V322.457l128-80.807Zm-67.84 65.08-41.09 25.858v33.473l41.09-59.33Z" fill="#5A9DED"/>
	<path d="M0 241.65 128 426.8V322.457L0 241.65Zm67.84 65.08 41.09 25.858v33.473l-41.09-59.33Z" fill="#53D3E0"/>
	<path fill="#D995D1" d="m144.238 156.998 84.775 47.215 3.005 9.187-10.094 8.812-77.686-43.358z"/>
	<path fill="#A6E276" d="m111.818 156.998-84.775 47.215-3.005 9.187 10.094 8.812 77.686-43.358z"/>
	<path d="m128 0 128 219.203-128 80.608V0Zm18.904 70.317V266.03l83.622-52.631-83.622-143.083Z" fill="#FF9C92"/>
	<path d="M128 0 0 219.203l128 80.608V0Zm-18.904 70.317V266.03L25.474 213.4l83.622-143.083Z" fill="#FFE94D"/>
</svg>
